X:1
T:Buxtehude - Trio Sonata No.1 in F. {Professional production full score.}
%%score [ ( 1 2 ) 3 4 ] { ( 5 6 9 ) | ( 7 8 ) }
L:1/8
Q:1/4=35
M:4/4
K:F
V:1 treble nm="Violino."
V:2 treble 
V:3 alto nm="Viola da gamba."
V:4 bass nm="Cembalo."
V:5 treble nm="Harpsichord"
V:6 treble 
V:9 treble 
V:7 bass 
V:8 bass 
V:1
"^Grave.""^S o n a t a  VI."!p! A2 z A AA MA>G | A2 z E F2 z PF | B2 z G A2 z A- | AG G3 F F2- | %4
 FMF/E/ F2- F/E/F/G/ TF>E ||"^Allegro." E2!f! z2 z4[Q:1/4=110] | z8 | z4 z D/d/ D/d/D/d/ | %8
 D d/f/ e/d/c/=B/ Ad/e/ d/c/B/A/ | ^GA/=B/ cd/e/ fc/B/ MB>A | A/a/g/f/ e/e/a/g/ fg af | %11
 b/B/A/G/ F/F/B/B/ Af/f/ f/f/f/f/ | f2 z A/=B/ cB/c/ Bd | =BA/^G/ AA AA MA>G | %14
 A2 z2 A/=B/c/d/ e/f/g/e/ | f2 z2 D/E/F/G/ A/B/c/A/ | B/A/G/F/ E/D/C/B,/ A, A/a/ A/a/A/a/ | %17
 Aa/b/ a/g/f/e/ dg/a/ g/f/e/d/ | ^cd/e/ fg/a/ _bf/e/ Me>d | d/e/f/g/ a/b/c'/a/ b/a/g/f/ e/d/c/B/ | %20
 A/=B/c/d/ e/f/g/e/ f/e/d/c/ B/A/G/F/ | E/e/c/e/ A/c/d/c/ f/A/d/c/ =B/d/e/d/ | %22
 g/=B/e/d/ c/e/f/e/ ac/c/ c/c/c/c/ | c2 z d/e/ fe/f/ eg | ed/^c/ dd dd Pd>c | d2 z2 z4 | %26
 A/=B/c/d/ e/f/g/e/ f/e/d/e/ f/g/a/=b/ | c'2 z f/g/ ag/a/ gb | gf/e/ ff ff Mf>e | %29
 fA/a/ A/a/A/a/ A2 z2 | z A/a/ A/a/A/a/ A2 z2 | z A/a/ A/a/A/a/ Aa/b/ a/g/f/e/ | %32
 df/g/ f/_e/d/c/ BB/c/ B/A/G/F/ | EF/G/ AB/c/ d/e/f/g/ ^c/a/g/a/ | fA/a/ A/a/A/a/ A2 z2 | %35
 z a/b/ a/g/f/e/ d2 z2 | z A/a/ A/a/A/a/ A2 z2 | z a/b/ a/g/f/e/ dg/a/ g/f/e/d/ | %38
 ^c3 d/e/ f3 g/a/ | b4 z2 MG2 | F4[Q:1/4=80] ME4[Q:1/4=60] | !breath!!fermata!D8 ||[Q:1/4=40] z8 | %43
 z!mf! d f- f/4A/4B/4(c/4 B-)B/4B/4A/4(G/4 F-)F/4_E/4D/4C/4 | B,B,B,B, B,/f/d/f/ B/d/F/B/ | %45
 B,4 z dfMd | B4 z MBdB | G4 z MgbMg | _egMec A2- A/B/4c/4 B/>A/ | %49
 B-B/4c/4d/4_e/4 d-d/4e/4f/4g/4 f-f/4e/4f/4g/4 f-f/4f/4g/4a/4 | %50
 b/a/4g/4 f/4_e/4d/4c/4 B/4c/4d/4e/4 f/4g/4_a/4b/4 ga/g/ Tf>e | !fermata!d8 || %52
!ff![Q:1/4=80]"^(Allegro.)" (3(f/g/f/) (3(f/g/f/) (3(f/g/f/) (3(f/g/f/) (3(f/g/f/) (3(f/g/f/) (3(f/g/f/) (3(f/g/f/) | %53
!mp! (3(f/g/f/) (3(f/g/f/) (3(f/g/f/) (3(f/g/f/) (3(f/g/f/) (3(f/g/f/) (3(f/g/f/) (3(f/g/f/) | %54
 z!ff! (3:2:2ff/ (3:2:2ff/ (3:2:2ff/ (3:2:2ff/ (3:2:2ff/ (3:2:2ff/ (3:2:2ff/ | %55
!mp! (3:2:2ff/ (3:2:2ff/ (3:2:2ff/ (3:2:2ff/ (3:2:2ff/ (3:2:2ff/ (3:2:2ff/ (3:2:2ff/ | %56
!mp!!ff! (3d/f/d/ (3c/f/c/ (3d/f/d/ (3c/f/c/ (3d/f/d/ (3c/f/c/ (3d/f/d/ (3c/f/c/ | %57
!mp!!mp! (3d/f/d/ (3c/f/c/ (3d/f/d/ (3c/f/c/ (3d/f/d/ (3c/f/c/ (3d/f/d/ (3c/f/c/ | %58
!ff! (3:2:2dD/ (3:2:2Cc/ (3:2:2dD/ (3:2:2Cc/ (3:2:2dD/ (3:2:2Cc/ (3:2:2dD/ (3:2:2Cc/ | %59
!mp! (3:2:2dD/ (3:2:2Cc/ (3:2:2dD/ (3:2:2Cc/ (3:2:2dD/ (3:2:2Cc/ (3:2:2dD/ (3:2:2A!breath!A,/ || %60
"^Adagio." z4[Q:1/4=40] T_A4 | G8- | G4 c4- | c6 M=B2 | !fermata!c8 || %65
!ff!"^(Allegro.)"[Q:1/4=80] (3c/d/c/ (3c/d/c/ (3c/d/c/ (3c/d/c/ (3c/d/c/ (3c/d/c/ (3c/d/c/ (3c/d/c/ | %66
!mp! (3c/d/c/ (3c/d/c/ (3c/d/c/ (3c/d/c/ (3c/d/c/ (3c/d/c/ (3c/d/c/ (3c/d/c/ | %67
 z!ff! (3:2:2cc/ (3:2:2cc/ (3:2:2cc/ (3:2:2cc/ (3:2:2cc/ (3:2:2cc/ (3:2:2cc/ | %68
!mp! (3:2:2cc/ (3:2:2cc/ (3:2:2cc/ (3:2:2cc/ (3:2:2cc/ (3:2:2cc/ (3:2:2cc/ (3:2:2cc/ | %69
!ff! (3a/c'/a/ (3g/c'/g/ (3a/c'/a/ (3g/c'/g/ (3a/c'/a/ (3g/c'/g/ (3a/c'/a/ (3g/c'/g/ | %70
!mp! (3a/c'/a/ (3g/c'/g/ (3a/c'/a/ (3g/c'/g/ (3a/c'/a/ (3g/c'/g/ (3a/c'/a/ (3g/c'/g/ | %71
!ff! (3:2:2aA/ (3:2:2Gg/ (3:2:2aA/ (3:2:2Gg/ (3:2:2aA/ (3:2:2Gg/ (3:2:2aA/ (3:2:2eE/ | %72
!mp! (3:2:2aA/ (3:2:2Gg/ (3:2:2aA/ (3:2:2Gg/ (3:2:2aA/ (3:2:2Gg/ (3:2:2aA/ (3:2:2e!breath!E/ || %73
"^Adagio." z4!p![Q:1/4=40] Tg3 a | f8 | z4 M_e3 f | d8 | z4 b4- | b2 ag f2 Pg2 | !fermata!a8 || %80
[M:3/4]"^Vivace."[Q:1/4=140] z6 | z6 |!f! d2 Md3 e | ^c2 A2 z (g | f2) Mf3 g | e2 ^c2 z b | %86
 a2 a2 (ab) | a3 agf | f2 Me3 d | d4 z2 |!p! a2 a2 (ab) | a3 agf | f2 Me3 d | d4 z2 |!f! c2 c3 c | %95
 c4- cd | B2 B3 B | B4- Bc | A2 d3 c | B3 B A2- | AA MG3 F | F4 z2 |!p! A2 d3 c | B3 B A2- | %104
 AA PG3 F | F4 z A |!f! d2 d3 e | ^c2 A2 z (g | f2) f3 g | e2 ^c2 z (b | a2) a2 (ab) | a3 agf | %112
 f2 Me3 d | d4 z2 |!p! a2 a2 (ab) | a3 agf | f2 e3 d | d2 z2 z2 |!f! f2 z2 z2 | F2 G3 G | A4 z2 | %121
!ff! F2 PG3 G | !fermata!A6 || %123
[M:4/4][Q:1/4=100]!f! a/4b/4a/4A/4 (a/4a/4a/4a/4) a/4b/4a/4A/4 (a/4a/4a/4a/4) a/4b/4a/4A/4 (a/4a/4a/4a/4) a/4b/4a/4A/4 (a/4a/4a/4a/4) | %124
!p! a/4b/4a/4A/4 (a/4a/4a/4a/4) a/4b/4a/4A/4 (a/4a/4a/4a/4) a/4b/4a/4A/4 (a/4a/4a/4a/4) a/4b/4a/4A/4 (a/4a/4a/4a/4) | %125
 z2!f! aa aa aa | z2!p! aa aa aa |[Q:1/4=30]"^Adagio." z8 | z2!pp!"_cresc." (A2 A2 d2 | %129
 B2 A2 MA2 TG>F) |!mp! !fermata!F8 || %131
[M:6/8][Q:1/4=100]!f!"^Poco Presto." a/b/a/g/f/e/ d/^c/d/e/f/d/ |!f! g/a/g/f/e/d/ ^c/A/c/d/e/c/ | %133
 fff fff | f/g/f/e/d/c/ =BE z | e/f/e/d/c/=B/ A/^G/A/B/c/A/ | d/e/d/c/=B/A/ ^G/E/G/A/B/G/ | %137
 e/d/e/f/e/f/ d/c/d/e/d/e/ | c/=B/c/d/c/B/ A z z | A/_B/A/G/F/E/ D>DE/F/ | G/A/G/F/E/D/ ^C>^cd/e/ | %141
 f/e/f/g/a/f/ b/c'/b/a/g/f/ | e/d/e/f/g/e/ a/b/a/g/f/e/ | d/c/d/e/f/d/ g/a/g/f/e/d/ | ^c>de A2 a | %145
 f>gf d3 | b2 d g[Q:1/4=70]Pf>e |[Q:1/4=35]"^Poco Adagio." fg/a/b!mf! b/b/e/e/a/a/ | %148
 a/a/d/d/g/g/ g/g/^c/g/Mf/e/ | f/d/f/g/a- a^g=g- | g^f=f e>de | A z f f/f/=B/B/e/e/ | %152
 e/e/A/A/d/d/ d/d/^G/d/Mc/=B/ | c/=B/Ad- d^c=c- | c=B_B A>PGA | D z B B/B/ E/E/A/A/ | %156
 A/A/D/D/G/G/ G/G/^C/G/MF/E/ | F/G/ TF>E!<(! D/[Q:1/4=120]E/F/G/A/B/!<)! || %158
!f!"^Presto." c/d/e/f/g/b/ a/g/f/e/d/c/ | b/a/g/f/e/d/ c/d/c/B/A/G/ | F/f/d/e/f/c/ d/G/A/B/G/A/ | %161
 F/c/ d/e/f/g/ a2 a | gg/g/g/g/ f/f/f/f/f/f/ | e/e/e/e/e/e/ f/f/f/f/f/f/ | %164
 g/g/g/g/g/g/ a/a/a/a/a/a/ | b/b/b/b/b/b/ g/g/g/g/g/g/ | a/a/a/a/a/a/ f/f/f/f/f/f/ | %167
 g/g/g/g/g/g/ f/f/f/f/f/f/ | e>gf/e/ f/e/f/g/a/b/ | ^c>ea/g/ f/e/f/g/a/f/ | b>ag a2 z | %171
 a/b/a/g/f/e/ d/^c/d/e/f/d/ | g/a/g/f/e/d/ ^c/A/c/d/e/c/ | d3 d>ef | g3- gf/e/f- | %175
 f_e/d/e- ed/^c/d | Td>e^c d z z | b/a/g/f/e/d/ Td>e^c | d z z B/A/G/F/E/D/ | %179
[Q:1/4=100]!<(! TD>E[Q:1/4=80]^C!fff! D z z!<)! ||[M:4/4][Q:1/4=40]!mp!"^Lento.""_cresc." z8 | %181
 z2 b2 ^c2 d2 | g6 f2- | f6[Q:1/4=30] Te>d |!mf![Q:1/4=40] !fermata!d8 |] %185
V:2
 x8 | x8 | x8 | x8 | x8 || x8 | x8 | x8 | x8 | x8 | x8 | x8 | x8 | x8 | x8 | x8 | x8 | x8 | x8 | %19
 x8 | x8 | x8 | x8 | x8 | x8 | x8 | x8 | x8 | x8 | x8 | x8 | x8 | x8 | x8 | x8 | x8 | x8 | x8 | %38
 x8 | x8 | D6 ^C2 | x8 || x8 | x8 | x8 | x8 | x8 | x8 | x8 | x8 | x8 | x8 || x8 | x8 | x8 | x8 | %56
 x8 | x8 | x8 | x8 || x8 | x8 | x8 | x8 | x8 || x8 | x8 | x8 | x8 | x8 | x8 | x8 | x8 || x8 | x8 | %75
 x8 | x8 | x8 | x8 | x8 ||[M:3/4] x6 | x6 | x6 | x6 | x6 | x6 | x6 | x6 | x6 | x6 | x6 | x6 | x6 | %93
 x6 | x6 | x6 | x6 | x6 | x6 | x6 | x6 | x6 | x6 | x6 | x6 | x6 | x6 | x6 | x6 | x6 | x6 | x6 | %112
 x6 | x6 | x6 | x6 | x6 | x6 | x6 | x6 | x6 | x6 | x6 ||[M:4/4] x8 | x8 | x8 | x8 | x8 | x8 | x8 | %130
 x8 ||[M:6/8] x6 | x6 | x6 | x6 | x6 | x6 | x6 | x6 | x6 | x6 | x6 | x6 | x6 | x6 | x6 | x6 | x6 | %148
 x6 | x6 | x6 | x6 | x6 | x6 | x6 | x6 | x6 | x6 || x6 | x6 | x6 | x6 | x6 | x6 | x6 | x6 | x6 | %167
 x6 | x6 | x6 | x6 | x6 | x6 | x6 | x6 | x6 | x6 | x6 | x6 | x6 ||[M:4/4] x8 | x8 | x8 | x8 | x8 |] %185
V:3
!p! F2 z E F^C D>E | P^C2 z C D2 z PD | G2 z E F2 z F- | FE E3 D D2- | DMD/^C/ D2- D/C/D/E/ TD>C || %5
 ^C!f!A,/A/ A,/A/A,/A/ A,A/B/ A/G/F/E/ | DG/A/ G/F/E/D/ ^CD/E/ FG/A/ | BF/E/ ME>D D2 z2 | %8
 z2 z A,/=B,/ CB,/C/ B,D | =B,A,/^G,/ A,A, A,A, MA,>G, | A,2 z2 z/ D/C/B,/ A,/A,/D/C/ | %11
 B,C DB, F[K:tenor] D,/D/ D,/D/D,/D/ | D,D/F/ E/D/C/B,/ A,D/E/ D/C/B,/A,/ | %13
 ^G,A,/=B,/ CD/E/ FC/=B,/ MB,>A, | A,/=B,/C/D/ E/F/_G/E/ F2 z2 | %15
[K:bass] D,/E,/F,/G,/ A,/B,/C/A,/ B,/C,/D,/E,/ F,/G,/A,/F,/ | %16
 G,/F,/E,/D,/ C,/B,,/A,,/G,,/ F,,F,/F,/ F,/F,/F,/F,/ | F,2 z D,/E,/ F,E,/F,/ E,G, | %18
 E,D,/^C,/ D,D, D,D, MD,>C, | D,2 z2 z4 | z8 | z8 | z4 z A,,/A,/ A,,/A,/A,,/A,/ | %23
 A,,A,/B,/ A,/G,/F,/E,/ D,G,/A,/ G,/F,/E,/D,/ | ^C,D,/E,/ F,G,/A,/ B,F,/E,/ ME,>D, | %25
[K:tenor] D,/E,/F,/G,/ A,/B,/C/A,/ B,/A,/G,/A,/ B,/C/D/E/ | F2 z2 z4 | %27
 z C/D/ C/B,/A,/G,/ F,B,/C/ B,/A,/G,/F,/ | E,F,/G,/ A,B,/C/ DA,/G,/ MG,>F, | %29
 F,2 z2 z C/D/ C/B,/A,/G,/ | F,2 z2 z A,/B,/ A,/G,/F,/E,/ | D,2 z2[K:bass] z F,/G,/ F,/_E,/D,/C,/ | %32
 B,,D,/_E,/ D,/C,/B,,/A,,/ G,,G,/A,/ G,/F,/=E,/D,/ | ^C,D,/E,/ F,G,/A,/ B,>G, A,>A,, | %34
 D,2 z2 z D,/D/ D,/D/D,/D/ | D,2 z2 z D,/D/ D,/D/D,/D/ | D,2 z2 z F,/G,/ F,/_E,/D,/C,/ | %37
 B,,4 z B,,/C,/ D,/E,/F,/G,/ | A,A,,/B,,/ A,,/G,,/F,,/E,,/ D,,D,/_E,/ D,/C,/B,,/A,,/ | %39
 G,,4 z2 MB,,2 | A,,8 | !fermata!D,,8 || %42
[K:tenor] z!mf! D F-F/4A,/4B,/4C/4 B,-B,/4B,/4A,/4G,/4 F,-F,/4_E,/4D,/4C,/4 | B,,B,,B,,B,, B,,4 | %44
 z/ F/D/F/ B,/D/F,/B,/ B,,4 | z DFMD B,4 | z MB,DB, G,4 | z MG,B,MG, _E,ME,G,ME, | %48
 C,4 z C _ETD/>C/ | D-D/4_E/4F/4G/4 F-F/4C/4D/4E/4 D-D/4C/4D/4E/4 D2- | DD DD _EF/E/ TD>C | %51
 !breath!!fermata!B,8 || %52
!ff! (3:2:2DD,/ (3:2:2C,C/ (3:2:2DD,/ (3:2:2C,C/ (3:2:2DD,/ (3:2:2C,C/ (3:2:2DD/ (3:2:2A,A,/ | %53
!mp! (3:2:2DD,/ (3:2:2C,C/ (3:2:2DD,/ (3:2:2C,C/ (3:2:2DD,/ (3:2:2C,C/ (3:2:2DD/ (3:2:2A,A,/ | %54
!ff! (3D/F/D/ (3C/F/C/ (3D/F/D/ (3C/F/C/ (3D/F/D/ (3C/F/C/ (3D/F/D/ (3C/F/C/ | %55
!mp! (3D/F/D/ (3C/F/C/ (3D/F/D/ (3C/F/C/ (3D/F/D/ (3C/F/C/ (3D/F/D/ (3C/F/C/ | %56
[K:alto] z!ff! (3:2:2FF/ (3:2:2FF/ (3:2:2FF/ (3:2:2FF/ (3:2:2FF/ (3:2:2FF/ (3:2:2FF/ | %57
!mp! (3:2:2FF/ (3:2:2FF/ (3:2:2FF/ (3:2:2FF/ (3:2:2FF/ (3:2:2FF/ (3:2:2FF/ (3:2:2FF/ | %58
!ff! (3F/G/F/ (3F/G/F/ (3F/G/F/ (3F/G/F/ (3F/G/F/ (3F/G/F/ (3F/G/F/ (3F/G/F/ | %59
!mp!!mp! (3F/G/F/ (3F/G/F/ (3F/G/F/ (3F/G/F/ (3F/G/F/ (3F/G/F/ (3F/G/F/ (3F/G/F/ || z4 F4- | %61
 F4 T_E3 D | _E8 | _A4 D3 MF | !breath!!fermata!E8 || %65
!ff! (3:2:2AA,/ (3:2:2G,G/ (3:2:2AA,/ (3:2:2G,G/ (3:2:2AA,/ (3:2:2G,G/ (3:2:2AA/ (3:2:2EE/ | %66
!mp! (3:2:2AA,/ (3:2:2G,G/ (3:2:2AA,/ (3:2:2G,G/ (3:2:2AA,/ (3:2:2G,G/ (3:2:2AA/ (3:2:2EE/ | %67
!ff! (3A,/C/A,/ (3G,/C/G,/ (3A,/C/A,/ (3G,/C/G,/ (3A,/C/A,/ (3G,/C/G,/ (3A,/C/A,/ (3G,/C/G,/ | %68
!mp! (3A,/C/A,/ (3G,/C/G,/ (3A,/C/A,/ (3G,/C/G,/ (3A,/C/A,/ (3G,/C/G,/ (3A,/C/A,/ (3G,/C/G,/ | %69
 z!ff! (3:2:2CC/ (3:2:2CC/ (3:2:2CC/ (3:2:2CC/ (3:2:2CC/ (3:2:2CC/ (3:2:2CC/ | %70
!mp! (3:2:2CC/ (3:2:2CC/ (3:2:2CC/ (3:2:2CC/ (3:2:2CC/ (3:2:2CC/ (3:2:2CC/ (3:2:2CC/ | %71
!ff! (3C/D/C/ (3C/D/C/ (3C/D/C/ (3C/D/C/ (3C/D/C/ (3C/D/C/ (3C/D/C/ (3C/D/C/ | %72
!mp!!mp! (3C/D/C/ (3C/D/C/ (3C/D/C/ (3C/D/C/ (3C/D/C/ (3C/D/C/ (3C/D/C/ (3C/D/C/ || z4!p! E4- | %74
 E2 PA,2 D4 | z4 C4- | C2 F,2 B,4 | z4 G4- | G2 FE D3 E | !breath!!fermata!^C8 ||[M:3/4] z6 | z6 | %82
!f! F2 F3 G | A6 | z A, MD3 E | ^C2 A,2 z2 | z2 DE F2- | FGFE D2 | D2 M^C3 D | D4 z2 | %90
 z2!p! DE F2- | FGFE D2 | D2 M^C3 D | D4 z2 | z!f! E E3 E | ABAG A2 | z D D3 D | GA GF G2 | %98
 z C F3 _E | D2 D=E F2- | FF PE3 F | F4 z2 | z!p! C F3 _E | D2 D=E F2 | FF ME3 F | F4 z2 | %106
!f! F2 F3 G | A4 z2 | z A, D3 E | ^C2 A,2 z2 | z2 DE F2- | FGFE D2 | D2 M^C3 D | D4 z2 | %114
 z2!p! DE F2- | FGFE D2 | MD2 T^C3 D | D2 z2 z2 |!f! D2 z2 z2 | A,2 D3 E | ^C4 z2 |!ff! A,2 MD3 E | %122
 !fermata!^C6 ||[M:4/4] z2!f! FE FE F^C | z2!p! FE FE F^C | %125
!f! F/4A/4F/4D/4 (E/4E/4E/4E/4) F/4A/4F/4D/4 (E/4E/4E/4E/4) F/4A/4F/4D/4 (E/4E/4E/4E/4) F/4A/4F/4D/4 (E/4E/4E/4E/4) | %126
!p! F/4A/4F/4D/4 (E/4E/4E/4E/4) F/4A/4F/4D/4 (E/4E/4E/4E/4) F/4A/4F/4D/4 (E/4E/4E/4E/4) F/4A/4F/4D/4 (E/4E/4E/4E/4) | %127
 z2!pp!"_cresc." (E2 E2 A2 | F6 D2 | E2 F4 ME2) |!mp! !fermata!F8 ||[M:6/8]!f! z6 | z6 | %133
 D/F/E/D/C/=B,/ A,/^G,/A,/B,/C/A,/ | D/E/D/C/=B,/A,/ ^G,/E,/G,/A,/B,/G,/ | CCC CCC | %136
 F/G/F/E/D/C/ =B,E, z | C/=B,/C/D/C/D/ B,/A,/B,/C/B,/C/ | A,/^G,/A,/=B,/A,/G,/ A,/B,/C/D/E/C/ | %139
 F2 z[K:bass] B,/C/B,/A,/G,/F,/ | E,/D,/E,/F,/G,/E,/ A,/B,/A,/G,/F,/E,/ | %141
 D,/C,/D,/E,/F,/D,/ G,/F,/G,/A,/B,/G,/ | CC,/D,/E,/C,/ F,/E,/F,/G,/A,/F,/ | %143
 B,/A,/B,/C/B,/A,/ G,/F,/G,/A,/B,/G,/ | A,/G,/A,/B,/A,/G,/ F,/A,/F,/G,/F,/E,/ | %145
 D,/F,/D,/_E,/D,/C,/ B,,/D,/B,,/C,/B,,/A,,/ | G,,G,/A,/G,/F,/ E,/D,/A,/G,,/MA,, | %147
 D,, z!mf! D,- D,^C,=C,- | C,=B,,_B,, A,,>G,,A,, | D,,D,/E,/F, F,/F,/=B,,/B,,/E,/E,/ | %150
 E,/E,/A,,/A,,/D,/D,/ D,/D,/^G,,/D,/C,/=B,,/ | C,/=B,,/A,,A,- A,^G,=G,- | G,^F,=F, E,>D,E, | %153
 A,, z B, B,/B,/E,/E,/A,/A,/ | A,/A,/D,/D,/G,/G,/ G,/G,/^C,/G,/MF,/E,/ | F,/E,/D,D- D^C=C- | %156
 C=B,_B, A,>G,A, | D, A,,2 D,,3 ||[K:alto] z6 | z6 | z6 | z2 z!f! F2 F | EE/E/E/E/ D/D/D/D/D/D/ | %163
 ^C/C/C/C/C/C/ D/D/D/D/D/D/ | E/E/E/E/E/E/ ^F/F/F/F/F/F/ | G/G/G/G/G/G/ E/E/E/E/E/E/ | %166
 G/G/G/G/G/G/ D/D/D/D/D/D/ | E/E/E/E/E/E/ D/D/D/D/D/D/ | ^CA,C D[K:bass] D,/E,/F,/G,/ | %169
 A,/B,/A,/G,/F,/E,/ D,/^C,/D,/E,/F,/D,/ | G,/A,/G,/F,/E,/D,/ ^C,/A,,/C,/D,/E,/C,/ | D,>E,F, G,2 z | %172
 E,>F,G, A,2 z | F,>G,A, B,2 z | G,>A,B, A,B,/C/D | G,A,/B,/C F,G,/A,/B, | %176
 E,F,/G,/A,/G,/ F,/E,/D,/C,/B,,/A,,/ | G,,>A,,B,, A,,>G,,A,, | %178
 D,,D,/C,/B,,/A,,/ G,,/F,,/E,,/D,,/B,, |!<(! A,,>G,,A,,!fff! D,, z z!<)! || %180
[M:4/4][K:tenor]!mp!"_cresc." z2 B,2 ^C,2 D,2 | G,6 F,2- | F,2 E,3 D, D,D | TD6 ^C2 | %184
!mf! !fermata!!courtesy!=D8 |] %185
V:4
!p! D2 z"^6" ^C D"^#"A,"^7   6" B,2 |"^#" A,2 z"^#" A, D,2 z B, | G,2 z C F,2 z F,, | %3
"^6  5\n4  3" C,2 z C,"^6\n5" ^C,2 D,E, |"^6" F,2 z D,"^7\n5" G,2 z"^7b" ^G, || %5
"^#" A,2 z!f!"^6" ^C, D,2 z"^6 5\n#" A, | B,2 z"^6" G,"^#" A,/G,/"^6"F,/E,/ D,/C,/B,,/A,,/ | %7
 G,,D,,"^4    #" A,,2 D,,2 z2 | z D"^6" CA, z2 z D, | %9
"^#" E,/D,/"^6"C,/=B,,/ A,,/G,,/"^6"F,,/E,,/ D,,F,"^6\n5" D,"^#"E, | %10
 A,,=B,,"^6" C,A,, D,E,"^6" F,D, | G,A, B,G, DD, D,D, | D,D E/D/"^6"C/=B,/ A,"^6h"D3/2 C/B,/A,/ | %13
"^5b" ^G,A,- A,/=G,/"^6"F,/E,/ D,A,,"^4#" E,2 | A,,2 z[K:tenor] E FF, CC, | %15
[K:bass] D,D,,"^5b" A,A,, B,B,, F,2 | G, z C, z F,F,, F,,F,, | F,, F,2 D, B,,"^6" G,,2 G,, | %18
"^#" A,, B,,2"^6" F,, G,,D,,"^4#" A,,2 | D,,2 z D"^7" G,2 C2 | F,2"^6" E,2"^7" D,2"^h" G,2 | %21
 C,2 F,2 D,2"^h" G,2 | E,2 A,3 A,,A,,A,, | A,,A,- A,/G,/"^6"F,/E,/ D,"^6"G,- G,/F,/E,/D,/ | %24
"^6" ^C,D,- D,/=C,/"^6"B,,/A,,/ G,,D,,"^4#" A,,2 | D,2"^6" A,2 B,2 G,2 | F,2"^6" ME,2 D,2 z D, | %27
 A,,A,- A,/B,/"^6"A,/G,/ F,B,-"^(6)" B,/A,/G,/F,/ | %28
"^6\n5" E,F,- F,/_E,/"^6"D,/C,/ B,,F,,"^4   3" C,2 | F,,F, F,F, F,2 z2 | z F,F,F, F,2 z2 | %31
 z D,D,D, D,2 z D, | B,,2 z B,, G,,G,- G,/F,/E,/D,/ | %33
"^6\n5" ^C,D,/E,/"^6" F,G,/A,/ B,"^(6)"F,"^#" A,A,, | D,2 z2 z D,D,D, | D,2 z2 z D,D,D, | %36
 D,2 z2 z F,2 D, |"^7" B,,4"^6" B,,4 |"^#" A,,2 z2 D,2 z2 | G,,4 z2"^6" B,,2 | %40
"^6                     5\n4                     #" A,,8 | !fermata!D,8 || %42
!mf!"^Con discretione" !^!B,,8- | B,,8- | B,,8- | B,,4 z B,,D,MB,, | G,,4 z MG,,B,,G,, | %47
 _E,,4 z _E,G,E, |"^b" C,4"^6" C,4 | B,,8- | %50
"^5                                                 6\n3                                                 4" B,,8- | %51
"_5\n3" !fermata!B,,8 ||!ff!"^Forte" B,,"_6"A,, B,,A,, B,,"_6"A,, B,,F,, | %53
!mp!"^Piano" B,,"_6"A,, B,,A,, B,,"_6"A,, B,,F,, |!ff!"^Forte" B,"^6"A, B,A, B,"^6"A, B,F, | %55
!mp!"^Piano" B,"^6"A, B,A, B,"^6"A, B,F, |!ff!"^Forte" B,"^6"A, B,A, B,"^6"A, B,F, | %57
!mp!"^Piano" B,"^6"A, B,A, B,"^6"A, B,F, |!ff!"^Forte" B,"^6"A, B,A, B,"^6"A, B,F, | %59
!mp!"^Piano" B,"^6"A, B,A, B,"^6"A, B,F, || z4"^b" F,4 |"_6\n5" =B,,8 |"^b" C,4 _A,,4 | %63
"_6\n5\nb" F,,4"_4          #" G,,4 | !fermata!C,,8 ||!ff!"^Forte" F,"^6"E, F,E, F,"^6"E, F,C, | %66
!mp!"^Piano" F,"^6"E, F,E, F,"^6"E, F,C, |!ff!"^Forte" F,"^6"E, F,E, F,"^6"E, F,C, | %68
!mp!"^Piano" F,"^6"E, F,E, F,"^6"E, F,C, |!ff!"^Forte" F,"^6"E, F,E, F,"^6"E, F,C, | %70
!mp!"^Piano" F,"^6"E, F,E, F,"^6"E, F,C, |!ff!"^Forte" F,"^6"E, F,E, F,"^6"E, F,C, | %72
!mp!"^Piano" F,"^6"E, F,E, F,"^6"E, F,C, || z4!p!"^6\n5" ^C,4 |"^9             8" D,8 | %75
 z4"^6\n5b" A,,4 |"^9             8" B,,8 | z4"^6\n5" E,,4 | %78
"^9      8\n4      3" F,,4"^7      6" B,,4 |"_#" !fermata!A,,8 ||[M:3/4]"^#"!f! A,3 =B, ^C2 | %81
 D2"^6" F,G,"^#" A,2 | D,2 D,C,"^5   6" B,,2 |"^#" A,,2 A,G, F,E, | D,C, B,,A,, B,,"^6"G,, | %85
"^#" A,,2 A,B, A,G, |"^6" F,G,F,E, D,2 | DED"^(6)"^C D2 |"^7\n5" G,2 A,4 | D,C,B,,A,,"^6"G,,A,, | %90
"^Piano"!p! F,,G,,F,,E,, D,,2 | D,E, D,^C, D,2 |"^7\n5" G,,2"^#" A,,4 | D,,2 D,E,"^6"F,D, | %94
!f!"^Forte" A,2 A,B,A,G, |"^6\n5" ^F,G, F,E, F,D, | G,2 G,A, G,F, |"^6\n5" E,F, E,D, D,C, | %98
 F,2 D,E, F,D, | G,^F, G,"^6#"G,,"^6" A,,2 | B,,2 C,3 C, | F,,2 F,E, F,G, | %102
"^Piano"!p!"^6" F,3 E, D,2 | G,^F, G,"^6"G,,"^6" A,,2 |"^7\n5" B,,2 C,3 C, | F,,2 F,E, D,C, | %106
"^Forte"!f! B,,A,,"^5" B,,3"^6" B,, |"^#" A,,2 A,G,"^6" F,E, | D,C, B,,A,, B,,"^6"G,, | %109
"^#" A,,2 A,B, A,G, |"^6" F,G, F,E, D,2 | DED^C D2 |"^7\n5" G,2"^#" A,2 A,,2 | %113
 D,C,B,,A,,"^6" G,,A,, |"^Piano"!p!"^(6)" F,,G,,"^(6)" F,,E,, D,,2 | D,E,D,^C, D,2 | %116
"^7\n5" G,,2"^#" A,,3 A,, | D,2"_Forte"!f! DE D^C | D2 D,E, D,^C, | D,2"^6" B,,4 |"^#" A,,4 z2 | %121
!ff! D,2"^6" B,,4 | !breath!!fermata!A,,6 ||[M:4/4] z2!f!"^Forte" D,"^6"^C, D,C, D,"^#"A,, | %124
"^Piano" z2!p! D,"^6"^C, D,C, D,"^#"A,, | z2!f!"^Forte" D,"^6"^C, D,C, D,"^#"A,, | %126
"^Piano" z2!p! D,"^6"^C, D,C, D,"^#"A,, | z8 | z2!pp!"_cresc." (F,2 F,2 B,2 | %129
"^6" G,2 F,2"^6      5\n4      3" C,4) |!mp! !fermata!F,,8 ||[M:6/8]!f! F,3 B,3 |"^7" E,3"^#" A,3 | %133
 D,3 F,3 | D,3"^#" E,3 | C,3 F,3 | D,3"^#" E,3 | C,3"^6#" D,3 |"^4               #\n(6)" E,3 A,,3 | %139
 D,3 G,3 | E,3"^#" A,3 | D,3 G,3 | C,3 F,3 | B,3"^6              5" G,3 |"^#" A,3"^6" F,3 | %145
 D,3 B,,3 | G,,2"^6" B,,"^(7)      6     5\n        4      #" A,,3 | D,, z!mf! D,- D,^C,"^6"=C,- | %148
 C,"^6#"=B,,"^6"_B,,"^7\n#" A,,>G,,"^6   5\n4   #"A,, | D,, z F,- F,"^6#"=B,,"^b"E,- | %150
 E,"^6#"A,,"^b"D,"^6           5" ^G,,3 | A,,2"^6     _" A,- A,"^7b"^G,"^6"=G,- | %152
 G,"^7"^F,"^6"=F,"^7\n#" E,>D,"^6  5\n4  #"E, | A, z B, B,"^6#"E,"^b"A,- | %154
 A,"^6#\n(#)"D,"^b"G,"^6          5" ^C,3 | D,2"^6" D- D"^6"^C"^6"=C- | %156
"^6" C"^7"=B,"^6"_B,"^7\n#" A,>G,"^6   5\n4"A, | D,"^6   5\n4   #" A,,2 D,,3 || %158
!f!"_6" E,,3"_5           6" F,,3 |"_5           6" G,,3"_5           6" A,,3 | %160
 B,,2"_6" A,,"_6\n5" B,,"_6\n4"C,"_5\n3"C,, | F,,3- F,,F,/G,/"_6"A,/B,/ | CC,"^5b"^C DD,"^6"F, | %163
"^#" A,A,,A, D,B,A, |"^6" G,CB,"^6#" A,"^#"DD, | G,A,B, CC,C |"^6" A,F,A, B,A,B, | %167
"^6" G,2 A, B,"^6"F,G, |"^#" A,3 D,3 |"^#" A,2 z D,2 z | G,2 z"^6" ^C,2 z | %171
 D,>E,"^6"F, G,2"^6" F, |"^6#" E,>"^6"F,"^6"G, A,2"^Orig.""^6\n4#" G, |"^6" F,>G,A, B,2"^6" A, | %174
 G,>A,"^6""^6"B,"^7" A, z D |"^7" G, z"^b" C"^7" F, z B, |"^7" E, z"^#" A,"^6" F,D,B,, | %177
 G,,>A,,"^6"B,,"^6\n4" A,,>"^(6)"G,,"^5\n#"A,, | D,,D,B,, G,, z"^6" B,, | %179
"^6\n4" A,,>"^(6)"G,,"^#"A,, D,, z z ||[M:4/4]!mp!"_cresc." z2 B,2"^6" ^C,2 D,2 | %181
 G,4-"^4#\n2" G,2"^6" F,2- |"^6\n4#" F,2"^6#" E,2"^6\n5" ^C,2 D,2 | %183
 B,,2"^6" F,,2"^7\n5" G,,2"^#" A,,2 |"_#"!mf! !fermata!D,,8 |] %185
V:5
"^Grave."!p! [FA]2 z [EA] [FA][^CEA-] AG | A2 z [CE] [DF]2 z [DF] | [DGB]2 z [EG] [FA]2 z [CF-A-] | %3
 [FA][EG] [EG]2 [EG]2 [DF]2 | [DF]2 z [DF] [DF]2 z [DF] ||"^Allegro." [^CE]2 z!f! E F2 z F/E/ | %6
 D2 z E ^CD [DF]2 | GF E2 D2 z2 | z [A-f] [Ae]c z2 z [FA] | ^GAcd dc =B2 | [Ac]2 Ac A2 d2 | %11
 B4 ABAG | [FA]3 [EA] [Ec][F=B] Bd- | dc- cd [A-d]c [A=B]^G | [CA]2 z [=Gc] [Ac]2 [EGc]2 | %15
 [FA]2 [_Ec]2 [DFd]2 [FAc]2 | [DGB] z [EGc] z [CFA][CFB][CAc][CA] | %17
 [CFA] [CFA]2 [DFA] [DFB] [EB]2 [DB] | [^CA] [DF]2 [DA] [DB][D-F] E2 | D2 z A B2 G2 | %20
 A2 c2- c2 =B2 | c2 A2 d2 =B2 | =B2 [EA]2 AAAA | c2- cd fe- e2 | ed d2- d3 ^c | d2 =c2 d2 B2 | %26
 c2 c2 f2 z f | e2- ef cd- dB- | [GB][FA-] AB [Bd][Ac] [Gc]2 | A[CF][FA][Ac]/[GB]/ [CFA]2 z2 | %30
 z [CF][FA][Ac]/[GB]/ [CFA]2 z2 | z [FA][Ad][Af]/[Ge]/ [FAd]2 z [DFA] | %32
 [DFB]2 z [DFB] [DGB]2- [DGB]2 | [EGA-]2 [DFA]2 [DF][FAd] [EA^c]2 | %34
 [FAd]2 z2 z [DFA] [Fd][Af]/[Ge]/ | [FAd]2 z2 z [DFA][FAd][Af]/[Ge]/ | [FAd]2 z2 z [CFA]2 [DFA] | %37
 [DA]4 [DG]4 | [^CEA]2 z2 [DFA]2 z2 | [DGB]4 z2 [DG]2 | F4 ME4 | !fermata!D8 ||!mf! [FBd]8- | %43
 [FBd]8- | [FBd]8- | [FBd]4 z [FBd][FBd][FBd] | [GBd]4 z [DGB][DGB][DGB] | %47
 [_EGB]4 z [B,EG][B,EG][B,EG] | [C_EG]4 [CEA]4 | [DFB]8- | [DFB]4 [_EGB]4 | !fermata![DFB]8 || %52
!ff!"^(Allegro.)" dc dc dc dA |!mp! dc dc dc dA |!ff! dc dc dc dA |!mp! dc dc dc dA | %56
!ff! dc dc dc dA |!mp! dc dc dc dA |!ff! dc dc dc dA |!mp! dc dc dc dA ||"^Adagio." z4 [CF]4 | %61
 [DF]8 | [C_E]4 [E_A]4 | [D_A]4 [DG]4 | !fermata![C=EG]8 ||!ff!"^(Allegro.)" AG AG AG AE | %66
!mp! AG AG AG AE |!ff! AG AG AG AE |!mp! AG AG AG AE |!ff! AG AG AG AE |!mp! AG AG AG AE | %71
!ff! AG AG AG AE |!mp! AG AG AG AE ||"^Adagio." z4!p! [E-G]4 | F8 | z4 [C-_EF]4 | [DF]8 | %77
 z4 [C-GB]4 | [GB]2 [FA-]2 A2 G2 | !fermata![^CEA]8 ||[M:3/4]"^Vivace."!f! A6- | A2 A2 E2 | %82
 F4- FG | E6 | F4- FG | E6 | A4 A2- | A3 A A2 | [DFB]2 [^CEA]4 | [DF]4 [B,EG]2 |!p! [A,DA]4 [DF]2 | %91
 [DFA]4 [DFA]2 | [DFB]2 [^CEA]4 | [DFA]4 [DAd]2 |!f! [EAc]6 | [DAc]6 | [DGB]6 | [CGB]6 | [FA]6 | %99
 [DGB]3 [B,EB] [CF-A-]2 | [FA]2 [EG]4 | [FA]4 [FAc]2 |!p! [FAd]4 [FAd]2 | [DGB]3 [EB] [FA]2- | %104
 [FA]2 [EG]4 | A4 [GB][Ac] |!f! [FBd]2 [DF]3 [DG] | [^CA]4 [DA]2 | [FA]2 [D-B]2 B2 | [^CA]6 | %110
 [DA]4 [FA]2 | [FA]6 | [DFB]2 [^CEA]4 | [DF]4 [B,EG]2 |!p! [A,DA]4 [A,DF]2 | [DF]6 | [DF]2 [^CE]4 | %117
 [DF]2 z2 z2 |!f! [DFA]2 z2 z2 | [FA]2 [DG]4 | [^CEA]4 z2 |!ff! [DF]2 [DG]4 | !fermata![^CEA]6 || %123
[M:4/4] z2!f! A2- A4 | z2!p! A2- A4 | z2!f! A2- A4 | z2!p! A2- A4 |"^Adagio." z8 | %128
 z2!pp!"_cresc." ([CF]2 [CF]2 [DF]2 | [B,EB]2 [CFA]2 [CFA]2 [CEG]2) |!mp! !fermata![CF]8 || %131
[M:6/8]!f!"^Poco Presto." [FAc]3 [FBd]3 | [GBd]3 [EA^c]3 | [FAd]3 [FAc]3 | [FAd]3 [E^G=B]3 | %135
 [EG]3 [CA]3 | [DFA]3 [=B,E^G]3 | [E=G]3 [=B,F=B]3 | [CEA]2 [=B,E^G] [CEA]3 | [DF]3 [B,D]3 | %140
 [B,EG]3 [^CE]3 | [DF]3 [DGB]3 | [CE]3 [CFA]3 | [DFB]3 B3 | [^CA]3 [DA]3 | [DF]3 [DF]3 | %146
 [DB]2 [DG] [EG][DF]P[^CE] |"^Poco Adagio." [DF] z!mf! [FB]- [FB]A- A- | %148
 A^G=G- [^CEG]2 [DF]/[^CE]/ | D z [CA]- [CA][D^G][_B,=G]- | [B,G][C^F][D=F] E2 D | C2 F-F FE- | %152
 E^D=D D2 C/=B,/ | C z d- d^c=c- | c=B_B A2 G | F z B- B A2- | A2 G G2 [DF]/[^CE]/ | %157
 [DF] [DF][^CE] D3 ||!f!"^Presto." C3- C2 D- | D E2- E2 F- | F2 F [FG][FA][EG] | %161
 [FA]3- [FA]2 [FA] | [EG]3 F>G[DA] | [^CE]3 Fdc | B G2 c A2 | Bcd e>dc | c3 F3 | B3- BAB | %168
 [^CE]3 [DF]3 | [^CE]2 z [DF]2 z | [DB]2 z [EA]2 z | d3 B2 d | ^c>de c3 | d3- d2 c | %174
 B2 d ^c z [F-A] | [FB] z [_E-G] [EA] z [D-F] | [DG] z [^CE] AFB | [DB]2 [DG] [DF]>[B,E][A,^C] | %178
 D3- [B,D] z [DG] |!<(! [DF]>[B,E][A,^C]!fff! D z z!<)! || %180
[M:4/4]!mp!"^Lento.""_cresc." z2 [FBd]2 [Ee]2 [DFA]2 | [DFB]4 [^CEA]2 [D-A]2 | G4- G2 F2 | %183
 F4- F2 E2 |!mf! !fermata!D8 |] %185
V:6
 x6 D2 | x8 | x8 | C3 B, x4 | x8 || x8 | x8 | B,[I:staff +1]A, x6 | x8 | %9
[I:staff -1] E2 EA FA- [FA][E^G] | E2 E2 F2 A2 | G2 FE F4 | x6 F=B- | BA- A2 FE E2 | x8 | x8 | x8 | %17
 x8 | x6 D^C | x3 F F2 E2 | F2 [CG]2 [DF]2 [DG]2 | [EG]2 [CF]2 [FA]2 [DG]2 | %22
 [EG]2 C2 [CE][=B,D][CE][DF] | [EA]2- [EA]A AB- B2 | AF FG BF [EA]2 | F2 F4 G2 | A2 G2 A2 x A | %27
 c4 AF G2 | C2 F2 FF- F=E | F A,CC x4 | x A,CC x4 | x DFA x4 | x8 | x8 | x6 A2 | x8 | x8 | x8 | %38
 x8 | x8 | D6 ^C2 | x8 || x8 | x8 | x8 | x8 | x8 | x8 | x8 | x8 | x8 | x8 || F8 | F8 | F8 | F8 | %56
 F8 | F8 | F8 | F8 || x8 | x8 | x4 C4 | C4- C2 T=B,2 | x8 || C8 | C8 | C8 | C8 | C8 | C8 | c8 | %72
 c8 || x8 | E4 D4 | x8 | C4 B,4 | x8 | x4 D4 | x8 ||[M:3/4] ^C3 D E2 | F2 D2 ^C2 | D6 | ^C6 | %84
 D4- DE | ^C6 | D4 F2- | F3 E F2 | x6 | x6 | x6 | x6 | x6 | x6 | x6 | x6 | x6 | x6 | C2 D4 | x6 | %100
 x6 | x6 | x6 | x6 | x6 | F6 | x6 | x6 | x4 DE | x6 | x6 | x6 | x6 | x6 | x6 | x6 | x6 | x6 | x6 | %119
 x6 | x6 | x6 | x6 ||[M:4/4] x2 FE FE E^C | x2 FE FE E^C | x2 FE FE E^C | x2 FE FE E^C | x8 | x8 | %129
 x8 | x8 ||[M:6/8] x6 | x6 | x6 | x6 | x6 | x6 | x6 | x6 | x6 | x6 | x6 | x6 | x3 E2 D | x6 | x6 | %146
 x6 | x4 E2 | E D2 x3 | x6 | x3 =B,3 | x2 C2 =B,B,- | B, x5 | x2 F- FGA- | A^F=F E3 | %155
 D x F- F E2- | E D2 E2 x | x6 || x3 A,3 | B,3 C3 | D2 C D C2 | x6 | x3 F3 | x3 D3 | E3 ^F>EF | %165
 G6 | F>GF DCD | EDC D2 D | x6 | x6 | x6 | F2 A G2 A | G>AB A3 | A2 G F2 F | G3- G x2 | x6 | %176
 x3 D3 | x6 | x6 | x6 ||[M:4/4] x4 AG z2 | x8 | D2 ^CD E2 D2 | D4- D2 C2 | x8 |] %185
V:7
 D2 z ^C DA, B,2 | A,2 z A, [D,A,]2 z B, | G,2 z C [F,C]2 z F,, | C,2 z C, [^C,A,]2 [D,A,]E, | %4
 A,2 z A, B,2 z ^G, || A,2 z ^C, D,2 z A, | B,2 z G, A,/G,/F,/E,/ D,/C,/B,,/A,,/ | %7
 G,,D,, A,,2 D,,2 z2 | z D CA, z2 z D, | E,/D,/C,/=B,,/ A,,/G,,/F,,/E,,/ D,,F, D,E, | %10
 A,,=B,, C,A,, D,E,F,D, | G,A, B,G, DD,D,D, | D,D E/D/C/=B,/ A,D3/2 C/B,/A,/ | %13
 ^G,A, A,/=G,/F,/E,/ D,A,, E,2 | A,,2 z E FF, CC, | D,D,, A,A,, B,B,, F,2 | G, z C, z F,F,,F,,F,, | %17
 F,, F,2 D, B,, G,,2 G,, | A,, B,,2 F,, G,,D,, [A,,A,]2 | D,,2 z D G,2 C2 | F,2 E,2 D,2 G,2 | %21
 C,2 F,2 D,2 G,2 | E,2 A,3 A,,A,,A,, | A,,A,- A,/G,/F,/E,/ D,G,- G,/F,/E,/D,/ | %24
 ^C,D,- D,/=C,/B,,/A,,/ G,,D,, A,,2 | D,2 A,2 B,2 G,2 | F,2 ME,2 D,2 z D, | %27
 A,,A,- A,/B,/A,/G,/ F,B,- B,/A,/G,/F,/ | E,F,- F,/_E,/D,/C,/ B,,F,, C,2 | F,,F,F,F, F,2 z2 | %30
 z F,F,F, F,2 z2 | z D,D,D, D,2 z D, | B,,2 z B,, G,,G,- G,/F,/E,/D,/ | %33
 ^C,D,/E,/ F,G,/A,/ B,F, A,A,, | D,2 z2 z [D,A,][D,A,][D,A,] | D,2 z2 z D,D,D, | D,2 z2 z F,2 D, | %37
 B,,4 B,,4 | A,,2 z2 D,2 z2 | G,,4 z2 B,,2 | [A,,A,]8 | !fermata![D,F,A,]8 || B,,8- | B,,8- | %44
 B,,8- | B,,4 z B,,D,MB,, | G,,4 z MG,,B,,G,, | _E,,4 z _E,G,E, | C,4 C,4 | B,,8- | B,,8- | %51
 !fermata!B,,8 ||"^Forte" B,,A,, B,,A,, B,,A,, B,,F,, |"^Piano" B,,A,, B,,A,, B,,A,, B,,F,, | %54
"^Forte" B,A, B,A, B,A, B,F, |"^Piano" B,A, B,A, B,A, B,F, |"^Forte" B,A, B,A, B,A, B,F, | %57
"^Piano" B,A, B,A, B,A, B,F, |"^Forte" B,A, B,A, B,A, B,F, |"^Piano" B,A, B,A, B,A, B,F, || %60
 z4 F,4 | [=B,,G,]8 | C,8 | F,,4 G,,4 | !fermata![C,,C,]8 ||"^Forte" F,E, F,E, F,E, F,C, | %66
"^Piano" F,E, F,E, F,E, F,C, |"^Forte" F,E, F,E, F,E, F,C, |"^Piano" F,E, F,E, F,E, F,C, | %69
"^Forte" F,E, F,E, F,E, F,C, |"^Piano" F,E, F,E, F,E, F,C, |"^Forte" F,E, F,E, F,E, F,C, | %72
"^Piano" F,E, F,E, F,E, F,C, || z4 ^C,4 | [D,A,]8 | z4 A,,4 | B,,8 | z4 E,,4 | F,,4 B,,4 | %79
 !fermata!A,,8 ||[M:3/4] A,3 =B, ^C2 | D2 F,G, A,2 | D,2 D,C, B,,2 | A,,2 A,G, F,E, | %84
 D,C, B,,A,, B,,G,, | A,,2 A,B, A,G, | F,G,F,E, D,2 | DED^C D2 | G,2 A,4 | D,C,B,,A,, G,,A,, | %90
"^Piano" F,,G,,F,,E,, D,,2 | D,E, D,^C, D,2 | G,,2 A,,4 | D,,2 D,E,F,D, |"^Forte" A,2 A,B,A,G, | %95
 ^F,G, F,E, F,D, | G,2 G,A, G,F, | E,F, E,D, D,C, | F,2 D,E,F,D, | G,^F, G,G,, A,,2 | B,,2 C,3 C, | %101
 F,,2 F,E, F,G, |"^Piano" F,3 E, D,2 | G,^F, G,G,, A,,2 | B,,2 C,3 C, | F,,2 F,E,D,C, | %106
"^Forte" B,,A,, B,,3 B,, | A,,2 A,G, F,E, | D,C, B,,A,, B,,G,, | A,,2 A,B,A,G, | F,G, F,E, D,2 | %111
 DED^C D2 | G,2 A,2 A,,2 | D,C,B,,A,, G,,A,, |"^Piano" F,,G,, F,,E,, D,,2 | D,E,D,^C, D,2 | %116
 G,,2 A,,3 A,, | D,2 z2 z2 |"^Forte" D,2 D,E,D,^C, | D,2 B,,4 | A,,4 z2 | D,2 B,,4 | %122
 !fermata!A,,6 ||[M:4/4] z2"^Forte" D,^C, D,C, D,A,, |"^Piano" z2 D,^C, D,C, D,A,, | %125
 z2"^Forte" D,^C, D,C, D,A,, |"^Piano" z2 D,^C, D,C, D,A,, | z8 | z2 (F,2 F,2 B,2 | G,2 F,2 C,4) | %130
 !fermata![F,,A,]8 ||[M:6/8]!f!!f! F,3 B,3 | E,3 A,3 | D,3 F,3 | D,3 E,3 | C,3 F,3 | D,3 E,3 | %137
 C,3 D,3 | E,3 A,,3 | D,3 G,3 | E,3 A,3 | D,3 G,3 | C,3 F,3 | B,3 G,3 | A,3 F,3 | D,3 B,,3 | %146
 G,,2 B,, A,,3 | D,, z D,- D,^C,=C,- | C,=B,,_B,, A,,>G,,A,, | D,, z F,- F,=B,,E,- | %150
 E,A,,D, ^G,,3 | A,,2 A,- A,^G,=G,- | G,^F,=F, E,>D,E, | A, z B,- B,E,A,- | A,D,G, ^C,3 | %155
 D, z D- D^C=C- | C=B,_B, A,>G,A, | D, [A,,A,]2 [D,,F,]3 || E,,3 F,,3 | G,,3 A,,3 | %160
 B,,2 A,, B,,C,C,, | F,,3- F,,F,/G,/A,/B,/ | CC,^C DD,F, | A,A,,A, D,B,A, | G,CB, A,DD, | %165
 G,A,B, CC,C | A,F,A, B,A,B, | G,2 A, B,F,G, | A,3 D,3 | A,2 z D,2 z | G,2 z ^C,2 z | %171
 D,>E,F, G,2 F, | E,>F,G, A,2 G, | F,>G,A, B,2 A, | G,>A,B, A, z D | G, z C F, z B, | %176
 =E, z A, F,D,B,, | G,,>A,,B,, A,,>G,,A,, | D,,D,B,, G,, z B,, | A,,>G,,A,, D,, z z || %180
[M:4/4] z2 B,2 ^C,2 D,2 | G,4- G,2 F,2- | F,2 E,2 ^C,2 D,2 | B,,2 F,,2 G,,2 [A,,A,]2 | A,8 |] %185
V:8
 x8 | x8 | x8 | x8 | F,2 x D, G,2 x2 || A,2 x A, A,2 x2 | x4 A,2 A,2 | x2 A,2 F,2 x2 | x8 | x8 | %10
 x8 | x8 | x8 | x8 | x8 | x8 | x8 | x8 | x8 | F,2 x6 | x8 | x8 | x8 | x8 | x8 | x8 | x8 | x8 | x8 | %29
 x8 | x8 | x8 | x8 | x8 | x8 | x8 | x8 | x8 | x8 | x6 G,2 | x8 | x8 || x8 | x8 | x8 | x8 | x8 | %47
 x8 | x8 | x8 | x8 | x8 || x8 | x8 | x8 | x8 | x8 | x8 | x8 | x8 || x4 _A,4 | x8 | G,4 _A,,4 | x8 | %64
 x8 || x8 | x8 | x8 | x8 | x8 | x8 | C8 | C8 || x4 A,4 | x8 | x8 | x8 | x8 | x8 | x8 ||[M:3/4] x6 | %81
 x6 | x6 | x6 | x6 | x6 | x6 | x6 | x6 | x6 | x6 | x6 | x6 | x6 | x6 | x6 | x6 | x6 | x6 | x6 | %100
 x6 | x6 | x6 | x6 | x6 | x6 | x6 | x6 | x6 | x6 | x6 | x6 | x6 | x6 | x6 | A,6 | x6 | x6 | x6 | %119
 x6 | x6 | x6 | x6 ||[M:4/4] x2 A,2- A,4 | x2 A,2- A,4 | x2 A,2- A,4 | x2 A,2- A,4 | x8 | %128
 x2 A,2 A,2 x2 | x8 | x8 ||[M:6/8] x6 | x6 | x6 | x6 | x6 | x6 | x6 | x6 | A,3 x3 | x6 | x6 | x6 | %143
 x6 | x6 | x6 | x6 | x6 | x5 A,/ x/ | [F,A,] x5 | x6 | A,2 x4 | x A,2 [^G,=B,]2 A,/^G,/ | A,, x5 | %154
 x6 | x6 | x6 | x6 || G,3 x3 | x6 | x6 | x6 | x6 | x6 | x6 | x6 | x6 | x6 | x6 | x6 | x6 | x6 | %172
 x6 | x6 | x6 | x6 | x6 | x6 | F,3 G, x G, | A,>[I:staff -1]B, x[I:staff +1] [F,A,] x2 || %180
[M:4/4] x8 | x8 | =B,2 G,2 A,2 A,2 | x8 | !fermata![D,,^F,]8 |] %185
V:9
 x8 | x8 | x8 | x8 | x8 || x8 | x8 | D2- D^C x4 | x8 | x8 | x8 | x8 | x8 | x8 | x8 | x8 | x8 | x8 | %18
 x8 | x8 | x8 | x8 | x8 | x8 | x8 | x8 | x8 | x8 | x8 | x8 | x8 | x8 | x8 | x8 | x8 | x8 | x8 | %37
 x8 | x8 | x8 | x8 | x8 || x8 | x8 | x8 | x8 | x8 | x8 | x8 | x8 | x8 | x8 || x8 | x8 | x8 | x8 | %56
 x8 | x8 | x8 | x8 || x8 | x8 | x8 | x8 | x8 || x8 | x8 | x8 | x8 | x8 | x8 | x8 | x8 || x8 | x8 | %75
 x8 | x8 | x8 | C8 | x8 ||[M:3/4] x6 | x6 | x6 | x6 | x6 | x6 | x6 | x6 | x6 | x6 | x6 | x6 | x6 | %93
 x6 | x6 | x6 | x6 | x6 | x6 | x6 | x6 | x6 | x6 | x6 | x6 | x6 | x6 | x6 | x6 | x6 | x6 | x6 | %112
 x6 | x6 | x6 | x6 | x6 | x6 | x6 | x6 | x6 | x6 | x6 ||[M:4/4] x8 | x8 | x8 | x8 | x8 | x8 | x8 | %130
 x8 ||[M:6/8] x6 | x6 | x6 | x6 | x6 | x6 | x6 | x6 | x6 | x6 | x6 | x6 | x6 | x6 | x6 | x6 | x6 | %148
 x6 | x6 | x6 | x6 | x6 | x6 | x6 | x6 | x6 | x6 || x6 | x6 | x6 | x6 | x6 | x6 | x6 | x6 | x6 | %167
 x6 | x6 | x6 | x6 | x6 | x6 | x6 | x6 | x6 | x6 | x6 | x6 | x6 ||[M:4/4] x8 | x8 | x8 | x8 | x8 |] %185

